packages/IcoMoon/src/LockIcon/index.svg

<svg version="1.1" xmlns="http://www.w3.org/2000/svg" width="16" height="16" viewBox="0 0 16 16">
<path d="M9.25 7h-0.25v-3c0-1.654-1.346-3-3-3h-2c-1.654 0-3 1.346-3 3v3h-0.25c-0.412 0-0.75 0.338-0.75 0.75v7.5c0 0.412 0.338 0.75 0.75 0.75h8.5c0.412 0 0.75-0.338 0.75-0.75v-7.5c0-0.412-0.338-0.75-0.75-0.75zM3 4c0-0.551 0.449-1 1-1h2c0.551 0 1 0.449 1 1v3h-4v-3z"></path>
</svg>

<svg xmlns="http://www.w3.org/2000/svg" viewBox="0 0 16 16">
  <path d="M9.25 7H9V4c0-1.654-1.346-3-3-3H4C2.346 1 1 2.346 1 4v3H.75a.753.753 0 00-.75.75v7.5c0 .412.338.75.75.75h8.5c.412 0 .75-.338.75-.75v-7.5A.753.753 0 009.25 7zM3 4c0-.551.449-1 1-1h2c.551 0 1 .449 1 1v3H3V4z"/>
</svg>
